shared/images/iconfont/85-kb-iconfont-reacji-wave-16.svg

<?xml version="1.0" encoding="UTF-8"?>
<svg width="16px" height="16px" viewBox="0 0 16 16" version="1.1" xmlns="http://www.w3.org/2000/svg" xmlns:xlink="http://www.w3.org/1999/xlink">
    <!-- Generator: sketchtool 54.1 (76490) - https://sketchapp.com -->
    <title>FEAF74D1-527C-4159-9697-70DD486322D1</title>
    <desc>Created with sketchtool.</desc>
    <g id="Symbols" stroke="none" stroke-width="1" fill="none" fill-rule="evenodd">
        <g id="85-kb-iconfont-reacji-wave-16">
            <g>
                <polygon id="icon-area" opacity="0" points="0 0 16 0 16 16 0 16"></polygon>
                <path d="M1.53449205,3.2441373 C1.21592085,3.05940091 1.10699823,2.65165757 1.29100559,2.33266472 C2.1274421,0.891278715 3.66682563,0.00295996731 5.33332222,1.27009514e-13 C5.70151175,1.27009514e-13 5.99998833,0.298476585 5.99998833,0.666666111 C5.99998833,1.03485564 5.70151175,1.33333222 5.33332222,1.33333222 C4.14268339,1.33548893 3.04298103,1.97051445 2.4459513,3.00065083 C2.26106596,3.31901883 1.85351401,3.42789192 1.53449205,3.2441373 Z M14.2808625,9.4639045 C13.9338985,9.17427756 13.4873016,9 13,9 C11.8954305,9 11,9.8954305 11,11 C9.8954305,11 9,11.8954305 9,13 C9,13.4693825 9.16169615,13.9009989 9.43242487,14.2421856 C7.81067521,15.4352151 5.53636089,15.3644928 3.98697668,13.989575 L1.67838527,11.9374901 C0.611307979,10.9883963 0.000583879804,9.62860017 0,8.20051317 L0,5.66666194 C0,5.11437765 0.447714877,4.66666278 0.999999167,4.66666278 C1.55228346,4.66666278 1.99999833,5.11437765 1.99999833,5.66666194 L1.99999833,7.24999396 L7.9583267,1.29166559 C8.34903135,0.902488614 8.98106036,0.903107637 9.37100192,1.2930492 C9.76094348,1.68299075 9.7615625,2.31501977 9.37238552,2.70572441 L6.70572108,5.37238886 L7.2356673,5.90234175 L11.2343306,1.90429841 C11.6250353,1.51512144 12.2570643,1.51574046 12.6470059,1.90568202 C13.0369474,2.29562358 13.0375664,2.92765259 12.6483895,3.31835723 L8.64972613,7.31640057 L9.18031902,7.84700013 L12.1803165,4.84700263 C12.5707981,4.45651923 13.2038953,4.45651773 13.5943787,4.84699929 C13.9848621,5.23748086 13.9848636,5.87057805 13.594382,6.26106145 L10.5943845,9.26105895 L11.1249841,9.79165851 L12.9583159,7.9583267 C13.1457973,7.77074595 13.4001363,7.66535582 13.6653453,7.66535582 C13.9305543,7.66535582 14.1848933,7.77074595 14.3723747,7.9583267 C14.5599563,8.14580723 14.6653477,8.40014572 14.6653489,8.66535473 C14.6653502,8.93056374 14.5599612,9.18490323 14.3723814,9.37238552 L14.2808625,9.4639045 Z M14,12 L15,12 C15.5522847,12 16,12.4477153 16,13 C16,13.5522847 15.5522847,14 15,14 L14,14 L14,15 C14,15.5522847 13.5522847,16 13,16 C12.4477153,16 12,15.5522847 12,15 L12,14 L11,14 C10.4477153,14 10,13.5522847 10,13 C10,12.4477153 10.4477153,12 11,12 L12,12 L12,11 C12,10.4477153 12.4477153,10 13,10 C13.5522847,10 14,10.4477153 14,11 L14,12 Z" id="Combined-Shape" fill="#000000"></path>
            </g>
        </g>
    </g>
</svg>

<svg xmlns="http://www.w3.org/2000/svg" width="16" height="16" viewBox="0 0 16 16">
    <path fill="#000" fill-rule="nonzero" d="M1.534 3.244a.668.668 0 0 1-.243-.911A4.683 4.683 0 0 1 5.333 0a.667.667 0 1 1 0 1.333 3.344 3.344 0 0 0-2.887 1.668.668.668 0 0 1-.912.243zm12.747 6.22a2 2 0 0 0-4.848 4.778 4.338 4.338 0 0 1-5.446-.252l-2.309-2.053A5.004 5.004 0 0 1 0 8.201V5.667a1 1 0 0 1 2 0V7.25l5.958-5.958a1 1 0 0 1 1.414 1.414L6.706 5.372l.53.53 3.998-3.998a1 1 0 0 1 1.414 1.414L8.65 7.316l.53.531 3-3a1 1 0 0 1 1.414 1.414l-3 3 .531.53 1.833-1.833a1 1 0 1 1 1.414 1.414l-.091.092zM14 12h1a1 1 0 0 1 0 2h-1v1a1 1 0 0 1-2 0v-1h-1a1 1 0 0 1 0-2h1v-1a1 1 0 0 1 2 0v1z"/>
</svg>
